X: 5110
T: Bridge Of Inver, The
R: reel
M: 4/4
K: Gminor
A|B2FE DB,B,D|ECCE DFFA|B2FE DFBF|GBcA B2BA|
B2FE DB,B,D|ECCE DFFA|B2FE DFBF|GBcA B2Bf||
dBdf gabg|fB (3dcB Acce|dBdf gbfg|dfcA B/B/B Bf|
(3dcB fB gBbB|gBfB Acce|dBFE DFBF|GecA B2B||

